X:1
T:BATTLE CRY OF FREEDOM
T:BATTLE CRY OF FREEDOM
T:GRAND CAPRICE DE CONCERT.
T:L. M. GOTTSCHALK.
C:L. M. GOTTSCHALK.
%%score { ( 1 2 5 ) | ( 3 4 ) } { ( 6 9 ) | ( 7 8 ) }
L:1/8
Q:1/4=120
M:2/4
K:F#
V:1 treble nm="Piano"
V:2 treble 
V:5 treble 
V:3 bass 
V:4 bass 
V:6 treble nm="Piano"
V:9 treble 
V:7 bass 
V:8 bass 
V:1
"^Melody by Geo. F. Root."!p! c2 A>B | c d2 c | B2 F>G | [FA]4 | A2 ^^G>^G | F e2 d | c2 G>^^G | %7
 A2 z/ F/A/f/ | c2 A>B | c>^^c d^c | Bf F>G | A4 | A2 ^^G>^G | Ffed | c2 [EG]>A | F4 | c2 A>B | %17
 c d2 c | B2 F>G | [FA]4 | A2 ^^G>^G | F e2 d | c2 G>^^G | A2 z/ F/A/f/ | c2 A>B | c>^^c d^c | %26
"_By permission of Wm. HALL & SON. the Publishers of L. M. Gottschalk." Bf F>G | A4 | A2 ^^G>^G | %29
 Ffed | c2 [EG]>A | F2 F>G | AA A>G | F2 D>E | F^^F({[EG]A)} [EG]/^^F/G/c/ | [Fc]AF>G | %36
 AA [^^GA][=GA] |"^con grazia." [FA]fed | cF/^^F/({[EG]A)} [EG]/^^F/G/c/ | F2 F>G | AA A>G | %41
 F2 D>E | F^^F({[EG]A)} [EG]/^^F/G/c/ | [Fc]AF>G | AA [^^GA][=GA] | [FA]fed | %46
 cF/^^F/({[EG]A)} [EG]/^^F/G/c/ | F2 z2 |!ff! z2"^maestoso." x2 | x4 | x4 | %51
 x2!8va(! [f'd''f'']2!8va)! | x4 | x4 | x4 | x2!8va(! [f'd''f'']2!8va)! | z4 | %57
 C2!8va(! [e'c''e'']2!8va)! | C2!8va(! [g'c''g'']2!8va)! | C2!8va(! [f'c''f'']2!8va)! | %60
 D2!8va(! [a'd''g'']2!8va)! | %61
[I:staff +1] G,2"^For Seven and a quarter 8va. Pianos."!8va(![I:staff -1] [^b'f''g''^b'']2!8va)! | %62
[I:staff +1] G,2!8va(![I:staff -1] [^b'f''g''^b'']2!8va)! | %63
[I:staff +1] C,2!8va(![I:staff -1] [c'g'c'']2!8va)! | x4 | x4 | x4 | %67
[K:treble]"^As the Author plays it." x2!8va(! [f'd''f'']2!8va)! | x4 | x4 | x4 | %71
 x2!8va(! [f'd''f'']2!8va)! | z4 | C2!8va(! [e'c''e'']2!8va)! | C2!8va(! [g'c''g'']2!8va)! | %75
 C2!8va(! [f'c''f'']2!8va)! | D2!8va(! [a'd''g'']2!8va)! | %77
[I:staff +1] G,2"^For Seven and a quarter 8va. Pianos."!8va(![I:staff -1] [^b'f''g''^b'']2!8va)! | %78
[I:staff +1] G,2!8va(![I:staff -1] [^b'f''g''^b'']2!8va)! | %79
[I:staff +1] C,2!8va(![I:staff -1] [c'g'c'']2!8va)! | z2 [Cc]2 | %81
 [FAcf]2[K:bass] [^^G,,^^G,]/[A,,A,]/[I:staff +1][^B,,,^B,,]/[C,,C,]/ | %82
[I:staff -1] [F,A,CF]/[F,A,CF]/[I:staff +1][^E,,^E,]/[F,,F,]/[I:staff -1][K:treble] [^^G,^^G]/[A,A]/[I:staff +1][^B,,^B,]/[C,C]/ | %83
[I:staff -1] [FAcf]2 [FAcf]>[FAcf] | [FAdf]2 [Gceg]2 | %85
 [Acfa]2[K:bass] [^^G,,^^G,]/[A,,A,]/[I:staff +1][^B,,,^B,,]/[C,,C,]/ | %86
[I:staff -1] [F,A,CF]/[F,A,CF]/[I:staff +1][^E,,^E,]/[F,,F,]/[I:staff -1][K:treble] [^^G,^^G]/[A,A]/[I:staff +1][^B,,^B,]/[C,C]/ | %87
[I:staff -1] [FAcf]2 [Acfa]>[Acfa] | [Afa]2 [Bfb]2 | %89
 [cec']2[K:bass] [^^D,^^D]/[E,E]/[I:staff +1][^^F,,^^F,]/[G,,G,]/ | %90
[I:staff -1][K:treble] [Cc]/[Cc]/[I:staff +1][^B,,^B,]/[C,C]/[I:staff -1] [^^D^^d]/[Ee]/[I:staff +1][^^F,^^F]/[G,G]/ | %91
[I:staff -1] [cc']2 [=df=a=d']>[^dfb^d'] | [=egb=e']2 [^ebc'^e']2 | %93
 [fac'f']2 [^^G,^^G]/[A,A]/[I:staff +1][^B,,^B,]/[C,C]/ | %94
[I:staff -1] [FAcf]/[FAcf]/[I:staff +1][E,E]/[F,F]/[I:staff -1] [^^G^^g]/[Aa]/[I:staff +1][^B,^B]/[Cc]/ | %95
[I:staff -1] [fac'f']2 [fac'f']>[fac'f'] | [fac'f']2 [gc'e'g']2 | %97
 [fad'f']2 [^^G,^^G]/[A,A]/[I:staff +1][^B,,^B,]/[C,C]/ | %98
[I:staff -1] [FAcf]/[FAcf]/[I:staff +1][^E,^E]/[F,F]/[I:staff -1] [^^G^^g]/[Aa]/[I:staff +1][^B,^B]/[Cc]/ | %99
[I:staff -1] [fac'f']2!8va(! [ac'f'a']>[af'a'] | [af'a']2 [bf'b']2 | %101
 [c'e'c'']2!8va)! [^^D^^d]/[Ee]/[I:staff +1][^^F,^^F]/[G,G]/ | %102
[I:staff -1] [cc']/[cc']/[I:staff +1][^B,^B]/[Aa]/[I:staff -1] [^^d^^d']/[^e^e']/[I:staff +1][^^F^^f]/[Gg]/ | %103
[I:staff -1] [cc']2 [=df=a=d']>[^dfb^d'] | [=egb=e']2 [^ebc'^e']2 | %105
 [fac'f']2[K:bass] [^^G,,^^G,]/[A,,A,]/[I:staff +1][^B,,,^B,,]/[C,,C,]/ | %106
[I:staff -1] [F,A,CF]/[F,A,CF]/[I:staff +1][^E,,^E,]/[F,,F,]/[I:staff -1][K:treble] [^^G,^^G]/[A,A]/[I:staff +1][^B,,^B,]/[C,C]/ | %107
!fff![I:staff -1] [FAcf]/[FAcf]/[I:staff +1][^E,^E]/[F,F]/[I:staff -1] [^^G^^g]/[Aa]/[I:staff +1][^B,^B]/[Cc]/ | %108
[I:staff -1] [fac'f']/[fac'f']/[I:staff +1][^E^e]/[Ff]/[I:staff -1] [^^g^^g']/[aa']/[I:staff +1][^d^d']/[cc']/ | %109
!8va(![I:staff -1] [f'a'c''f''][f'a'c''f''] z2!8va)! | z4 | z4 | z4 | z4 |!fff! [Dd]4 | [Cc]4 | %116
 [A,A][Cc] [Ff][Aa] | [G^Bdg]3 [Gceg] | [G^Bfg]2 [FBf]>[Gg] | [Acea][Aa][Aa]>[Gg] | %120
 [FAcf]2 [DAd]>[Ece] | [Fcf][Ee][Fcf][^^Fc^^f] | [G^Bg][Dd] [D=Bd][Ff] | [Fcf][Cc][CFc][=E=e] | %124
 [=EA=e][A,A][B,FB][Dd] | [DGd][G,G][G,G][Cc] | [Cc][F,F][F,B,=DF][B,B] | %127
 [A,CFA][G,DFG][CEc][Fcf] | [Bdfb]2 [EBce]>[FAf] | [FAf]2 [fac'f']2 | z4 |!f!"^Sonore." c2 A>B | %132
 c d2 c | c2 A>B | c4 | c2 A>B | c d2 c | c2 A>F | G2 F>G | AAA>G | F2 D>E | FFF>E | D4 | C4 | %144
 A,[A,C][CF][CFA] | G3 A | G2 F>G | AAA>G | F2 D>E | FFF>E | D4 | C4 | A,[A,C][CF][CFA] | %153
 [^B,FG]2 [=B,Ec]2 | [A,F]4 |!f! [cc']2 [Aa]>[Bb] | [cc'] [dd']2 [cc'] | [cc']2 [Aa]>[Bb] | %158
 [cc']4 | [cc']2 [Aa]>[Bb] | [cc'] [dd']2 [cc'] | [cc']2 [Aa]>[Ff] |[K:F#][K:treble] x4 | x4 | x4 | %165
 x4 | x4 |[K:treble]!f!"^As the Author plays it." [CEGc]4[K:bass] | %168
 [A,CEA][CEAc][K:treble] [FAcf][Acfa] | [G^Bfg]3 [Ada] | [fg]e d>[Gce] | [Aca][Aa][A^^ca]>[Gg] | %172
 [Fdf]2 [D^^Gd]>[Ee] | [FAf][FAf][FAf]>[EGe] | [DFd]4 | [CEGc]4 | [A,CFA][CFAc] [FAcf][Acfa] | %177
!f! [G^Bfg]2 [cec']2 | [FAcf]4 |!p!"^ben cantato." =a2 f>^g | e'2 c'>=d' | =e'^e' f'g' | %182
!8va(! (6:4:6b'/=a'/=e'/c'/[I:staff +1]=a'/=e'/[I:staff -1] (6:4:6=d'/c'/=a/=e/[I:staff +1]c'/=a/!8va)! | %183
[I:staff -1] =a2 f>^g | e'2 c'>^d' | ^e'f' ^^f'g' |!8va(! c''2!8va)! z2 | c'2 [=A=a]>[Bb] | %188
 [cc']2 z2 | c'2 [=A=a]>[Bb] | [cc']2 z2 | c'2 [=A=a]>[Bb] | c'2 [=A=a]>[Bb] | [cc']2 [Aa]>[Bb] | %194
 [^B^b][cc']{/^e'} [d=bd']>[cc'] | %195
!p!"^As the Author plays it."!8va(! [a'f'']/[=a'c'']/[g'c'']/[=g'^a']/ [f'c'']/[e'a']/[d'a']/[=d'f']/ | %196
 [c'a']/[af']/[af']/[fc']/!8va)! z/ f/[bg']/[fd']/ | %197
 [af']/[=ac']/[gc']/[=g^a]/ [fc']/[ea]/[da]/[=df]/ | z/ e/[be']/[^^fc']/ x!8va(! [c'c''] | %199
 [a'f'']/[=a'c'']/[g'c'']/[=g'^a']/ [f'c'']/[e'a']/[d'a']/[=d'f']/ | %200
 [c'a']/[af']/[af']/[fc']/!8va)! z/ f/[bg']/[fd']/ | %201
 [af']/[=ac']/[gc']/[=g^a]/ [fc']/[ea]/[da]/[=df]/ | z/ e/[be']/[ec']/ [bf']/[fc']/[bg']/[gc']/ | %203
 [c'a']/a/z/[ca]/ [a^e']/[=a=d']/[^gd']/[^e^a]/ | [af']/[fd']/z/f/ [fd']/[d=a]/z/[ee']/ | %205
 [af']/[fd']/z/f/ [a^e']/[=a=d']/[^gd']/[^ea]/ | [fd']/[da]/z/d/ [fd']/[dg]/z/d/ | %207
 [ec']/[cg]/[I:staff +1][^B,,^B,]/[C,C]/[I:staff -1] [^^C^^c]/[Dd]/[I:staff +1][^^D,^^D]/[E,E]/ | %208
[I:staff -1] [Gc]/[FB]/[I:staff +1][A,E]/[F,D]/[I:staff -1] [da]/[cf]/[I:staff +1][CA]/[A,F]/ | %209
[I:staff -1] [fd']/[=dg]/[I:staff +1][^B^e]/[G^d]/!8va(![I:staff -1] [f'd'']/[=d'g']/[I:staff +1][^b'^f'']/[g'^d'']/ | %210
[I:staff -1] [b'g'']/[=g'c'']/[I:staff +1][e'a']/[c'g']/!8va)![I:staff -1] [bf']/[fc']/z/[=g^g']/ | %211
 [c'a']/[af']/z/a/ [a^e']/[=a=d']/[^gd']/[^e^a]/ | [af']/[fd']/z/f/ [fd']/[d=a]/z/[ee']/ | %213
 [af']/[fd']/z/f/ [a^e']/[=a=d']/[^gd']/[^ea]/ | [fd']/[da]/z/d/ [fd']/[dg]/z/d/ | %215
 [ec']/[cg]/[I:staff +1][^B,,^B,]/[C,C]/[I:staff -1] [^^C^^c]/[Dd]/[I:staff +1][^^D,^^D]/[E,E]/ | %216
"^As the Author plays it."[I:staff -1] [Gc]/[FA]/[I:staff +1][A,E]/[F,D]/[I:staff -1] [da]/[cf]/[I:staff +1][CA]/[A,F]/ | %217
[I:staff -1] [fd']/[=dg]/[I:staff +1][^B^e]/[G^d]/!8va(![I:staff -1] [f'd'']/[=d'g']/[I:staff +1][^b'^f'']/[g'^d'']/!8va)! | %218
[I:staff -1] [bg']/[=gc']/[I:staff +1][^e^a]/[cg]/!8va(![I:staff -1] [b'g'']/[=g'c'']/!8va(![I:staff +1][e'a']/[c'g']/!8va)! | %219
[I:staff -1] [af']/[fc']/[I:staff +1][af']/[fc']/[I:staff -1] [af']/[fc']/[I:staff +1][af']/[f^b]/ | %220
[I:staff -1] [ca]/[^^Gf]/!8va)![I:staff +1][ca]/[Ae]/[I:staff -1] [fc']/[^Bg]/[I:staff +1][Fc]/[C^^G]/ | %221
[I:staff -1] [Ag]/[Ec]/[I:staff +1][A,F]/[F,C]/[I:staff -1] [Ag]/[Fc]/[I:staff +1][A,F]/[F,C]/ | %222
[I:staff -1] [ca]/[^^Gf]/[I:staff +1][ca]/[Ae]/[I:staff -1] [fc']/[^Bg]/[I:staff +1][Fc]/[CA]/ | %223
[I:staff -1] [Af]/[Ec]/[I:staff +1][Af]/[Ec]/[I:staff -1] [ca]/[^^Gf]/[I:staff +1][ca]/[Af]/ | %224
!8va(![I:staff -1] [f'c'']/[^ba']/[I:staff +1][f'c'']/[c'a']/[I:staff -1] [a'f'']/[e'c'']/[I:staff +1][a'f'']/[f'c'']/ | %225
[I:staff -1] [a'a''][af'a'][af'a'][af'a'] | [af'a'][af'a'][af'a'][af'a'] | %227
 [af'a'][af'a'][af'a'][af'a'] | [af'a'][af'a'][af'a'][af'a'] | [bf'b'][bf'b'][bf'b'][bf'b'] | %230
 [bf'b'][bf'b'][bf'b'][bf'b'] | [bf'b'][bf'b'][bf'b'][bf'b'] | [bf'b'][bf'b'][c'f'c''][c'f'c''] | %233
 [=d'^e'^g'=d''][d'e'g'd''][d'e'g'd''][d'e'g'd''] | %234
 [=d'^e'^g'=d''][d'e'g'd''][c'e'g'c''][be'g'b']!8va)! |] ac' f'a' | g'2 c'2 | [ff']2 x2 |] %238
[K:D]"^Brillante."!8va(! (6:4:6z/ f'/b'/a'/f'/d'/ (6:4:6z/ d'/g'/f'/d'/[I:staff +1]g'/ | %239
[I:staff -1] z"_M. G."[I:staff +1] b'/4[I:staff -1]d'/4^e'/4^g'/4 b'/4d''/4^e''/4^g''/4 a'' | %240
 (6:4:6z/ f'/b'/a'/f'/d'/ (6:4:6z/ d'/g'/f'/d'/[I:staff +1]g'/ | %241
[I:staff -1] z2 (3a'/g'/e'/ c'/4a'/4c'/4b/4 | %242
 (6:4:6z/ f'/b'/a'/f'/d'/ (6:4:6z/ d'/g'/f'/d'/[I:staff +1]g'/ | %243
[I:staff -1] z"_M. G."[I:staff +1] b'/4[I:staff -1]d'/4^e'/4^g'/4 b'/4d''/4^e''/4^g''/4 a'' | %244
 (6:4:6z/ f'/b'/a'/f'/d'/ (6:4:6z/ d'/g'/f'/d'/[I:staff +1]g'/ | %245
[I:staff -1] z c''/4a''/4c''/4a'/4 (3a'/g'/a/ c'/4a'/4c'/4b/4!8va)! | %246
!8va(! (6:4:6f'/f'/f'/f''/^a'/f'/ (6:4:6f'/f'/f'/e''/a'/e'/ | %247
 (6:4:6d'/d'/d'/d''/f'/d'/ (6:4:6b'/f'/b/c''/f'/c'/ | %248
 (6:4:6d'/d'/d'/d''/f'/d'/ (6:4:6d'/d'/d'/d''/f'/c'/ | %249
 [bb'] b/4d'/4^e'/4^g'/4 b'/4d''/4^e''/4^^f''/4 ^g'' | %250
 z c''/4a''/4c''/4a'/4 (3a'/g'/a/ c'/4a'/4c'/4b/4!8va)! | %251
 (3f/A/d/ (3f/a/d'/!8va(! (5:4:5f'/4a'/4d''/4f''/4g''/4 a'' | %252
 z ^g'/4e''/4g'/4e'/4!8va)! (3d/B/E/ ^g/4e'/4g/4[I:staff +1]f/4 | %253
!8va(![I:staff -1] (3z/ a/c'/ e'/4a'/4c''/4e''/4 a''2!8va)! | %254
!8va(! (6:4:6f'/f'/f'/f''/^a'/f'/ (6:4:6f'/f'/f'/e''/a'/e'/ | %255
 (6:4:6d'/d'/d'/d''/f'/d'/ (6:4:6b'/f'/b/c''/f'/c'/ | %256
 (6:4:6d'/d'/d'/d''/f'/d'/ (6:4:6d'/d'/d'/d''/f'/c'/ | %257
 [bb'] b/4d'/4^e'/4^g'/4 b'/4d''/4^e''/4^^f''/4 ^g'' | %258
 z c''/4a''/4c''/4a'/4 (3a'/g'/a/ c'/4a'/4c'/4b/4!8va)! | %259
 (3f/A/d/ (3f/a/d'/!8va(! (5:4:5f'/4a'/4d''/4f''/4g''/4 a''!8va)! | %260
 z!8va(! ^g'/4e''/4g'/4e'/4 (3d'/b/e/!8va)! ^g/4e'/4g/4e/4 | %261
 a!8va(! c''/4a''/4c''/4a'/4 (3g'/e'/a/ c'/4a'/4c'/4a/4 | %262
 (6:4:6z/ d''/a''/f''/d''/a'/!8va)! (6:4:6z/ d'/a'/f'/d'/a/ | (6:4:6z/ d/a/f/d/A/!ff! z3/2 E/ | %264
!f! F[f^ac'f'][fac'f'][fac'f'] | z [f^ac'f'] z [fac'f'] | z [fbd'f'] [fbd'f'][fbd'f'] | %267
 [fbd'f'][fbd'f'][fbd'f'][fbd'f'] | z4 | z4 | x4 | x4 | %272
[K:treble]"^As the Author plays it."!ppp! x2[K:bass] [^^D,^^D]/[^E,^E]/[I:staff +1][^^F,,^^F,]/[^G,,^G,]/ | %273
[I:staff -1][K:treble] [Cc]/[Cc]/[I:staff +1][^B,,^B,]/[C,C]/[I:staff -1] [^^D^^d]/[Ee]/[I:staff +1][^^F,^^F]/[^G,^G]/ | %274
[I:staff -1] [cc'][c^gc'][^Bg^b][cgc'] | [^^c^g^^c'][^dg^d'][ebc'e'][^ebc'^e'] | %276
 [f^ac'f'][I:staff +1][^C,^C]/[D,D]/[I:staff -1] [^^G,^^G]/[^A,^A]/[I:staff +1][^B,,^B,]/[C,C]/ | %277
[I:staff -1] [Ff]/[Ff]/[I:staff +1][^E,^E]/[F,F]/[I:staff -1] [^^G^^g]/[^A^a]/!8va(![I:staff +1][^B,^B]/[Cc]/!8va)! | %278
[I:staff -1] [ff'][fc'f'][^ec'^e'][fc'f'] | [^ec'^e'][fc'f'][ec'e'][fc'f'] | %280
 [^g^b^d'f'^g']2 [^^A,^^A]/[^B,^B]/[I:staff +1][^^C,^^C]/[^D,^D]/ | %281
[I:staff -1] [^G^g]/[Gg]/[I:staff +1][^^F,^^F]/[^G,G]/[I:staff -1] [^^A^^a]/[^B^b]/[I:staff +1][^^C^^c]/[^D^d]/ | %282
[I:staff -1] [^g^g'][g^d'g'][^^fd'^^f'][gd'g'] | [^^f^d'^^f'][^gd'^g'][fd'f'][gd'g'] | %284
!8va(! [c'^e'^g'c'']2!8va)![K:bass] [^^D,^^D]/[^E,^E]/[I:staff +1][^^F,,^^F,]/[^G,,^G,]/ | %285
[I:staff -1][K:treble] [Cc]/[Cc]/[I:staff +1][^B,,^B,]/[C,C]/[I:staff -1] [^^D^^d]/[Ee]/[I:staff +1][^^F,^^F]/[^G,^G]/ | %286
[I:staff -1] [cc'][c^gc'][^Bg^b][cgc'] | [^^c^g^^c'][^dg^d'][=ec'=e'][^eb^e'] |] %288
[K:F#]!ff! [fac'f'][Acfa] z [Acfa] | z [Acfa] z [Acfa] | %290
 [cac']/[cac']/ z/ [cac']/ [Afa]/[Afa]/ z/ [Bgb]/ | [cac'][cac'] [d^^gd'][dgd'] | %292
 [cac']/[cac']/ z/ [cac']/ [Afa]/[Afa]/ z/ [Bfb]/ | [cgc'][cgc'] z [cgc'] | %294
 [cac']/[cac']/ z/ [cac']/ [Afa]/[Afa]/ z/ [Bgb]/ | [cac'][cac'] [d^^gd'][dgd'] | %296
 [cac']/[cac']/ z/ [cac']/ [Afa]/[Afa]/ z/ [Bfb]/ | [cec'][cec'] [fd'f']>[ge'g'] | %298
!8va(! [af'a'][af'a'] [af'a']>[ge'g'] | [fd'f'][fd'f'] [d^^gd']>[ege'] | %300
 [faf'][faf'] [faf']>[e^ge'] | [dfd'][dfd'] z [dfd'] | %302
 [cec']2!8va)![K:bass] [^^C,^^C]/[D,D]/[I:staff +1][^^D,,^^D,]/[E,,E,]/ | %303
[I:staff -1][K:treble] [F,F][A,A] [Cc][Aa] | [Gg]3 [Ada] | [Geg][Geg]!8va(! [fd'f']>[ge'g'] | %306
 [af'a'][af'a'] [a^^c'a']>[ge'g'] | [fd'f'][fd'f'] [d^^gd']>[ege'] | [faf'][faf'] [faf']>[e^ge'] | %309
 [dfd'][dfd'] z [dfd'] | [cec']2!8va)![K:bass] [^^C,^^C]/[D,D]/[I:staff +1][^^D,,^^D,]/[E,,E,]/ | %311
[I:staff -1][K:treble] [F,F][A,A] [Cc][Aa] | [Gg]3 [Ada] | [cc']2 [eg][eg] | %314
!8va(! [f'a'c''f'']>!8va)![Acfa] [Acfa]>[Bdfb] | [Bdfb]>[cfac'] [cfac']>[dfbd'] | %316
 [dfbd']>[fac'f'] [fac'f']>!8va(![bd'f'b'] | [bd'f'b']>[e'b'c''e''] [e'b'c''e'']>[f'a'c''f''] | %318
 [f'a'c''f'']4 | [f'a'c''f'']4!8va)! | !fermata![F,A,CF]4 |] %321
V:2
 [FA]4 | [=EFA]4 | [DF]4 | C4 | [^^CE]4 | D [^B,F=A]3 | [CEG]2 [B,DE]2 | [A,CF]^B,/C/ E/ x3/2 | %8
 [FA]4 | [=EFA]4 | [DF]2 =D2 | x4 | x4 | x2 [^B,F^^G]2 | [CFA]2 x2 | x4 | [FA]4 | [=EFA]4 | [DF]4 | %19
 C4 | [^^CE]4 | D [^B,F=A]3 | [CEG]2 [B,DE]2 | [A,CF]^B,/C/ E/ x3/2 | [FA]4 | [=EFA]4 | [DF]2 =D2 | %27
 x4 | x4 | x2 [^B,F^^G]2 | [CFA]2 x2 | x4 | x4 | x4 | x4 | x4 | x4 | x2 [^B,F^^G]2 | [CFA]2 x2 | %39
 x4 | x4 | x4 | x4 | x4 | x4 | x2 [^B,F^^G]2 | [CFA]2 x2 | x4 | x4 | x4 | x4 | x2!8va(! x2!8va)! | %52
 x4 | x4 | x4 | x2!8va(! x2!8va)! | x4 | x2!8va(! x2!8va)! | x2!8va(! x2!8va)! | %59
 x2!8va(! x2!8va)! | x2!8va(! x2!8va)! | x2!8va(! x2!8va)! | x2!8va(! x2!8va)! | %63
 x2!8va(! x2!8va)! | x4 | x4 | x4 |[K:treble] x2!8va(! x2!8va)! | x4 | x4 | x4 | %71
 x2!8va(! x2!8va)! | x4 | x2!8va(! x2!8va)! | x2!8va(! x2!8va)! | x2!8va(! x2!8va)! | %76
 x2!8va(! x2!8va)! | x2!8va(! x2!8va)! | x2!8va(! x2!8va)! | x2!8va(! x2!8va)! | x4 | %81
 x2[K:bass] x2 | x2[K:treble] x2 | x4 | x4 | x2[K:bass] x2 | x2[K:treble] x2 | x4 | x4 | %89
 x2[K:bass] x2 |[K:treble] x4 | x4 | x4 | x4 | x4 | x4 | x4 | x4 | x4 | x2!8va(! x2 | x4 | %101
 x2!8va)! x2 | x4 | x4 | x4 | x2[K:bass] x2 | x2[K:treble] x2 | x4 | x4 |!8va(! x4!8va)! | x4 | %111
 x4 | x4 | x4 | x4 | x4 | x4 | x4 | x4 | x4 | x4 | x4 | x4 | x4 | x4 | x4 | x4 | x4 | x4 | x4 | %130
 x4 | A2 F>G | A [^B,DF^^G]2 [CFA] | [CFA]2 [DF]2 | (3[CF][DF][CF] (3[A,F][F,F][G,F] | %135
 [A,F]2 [CF]>[DF] | A [^B,DF^^G]2 [CFA] | [CFA]2 [DF]2 | [G,^B,D]2 [=B,=D]2 | F2 [B,^E]2 | %140
 [A,D]2 x2 | x4 | x4 | x4 | x4 | [^B,F]3 [B,F] | [CF]ED>E | F2 [B,^E]2 | [A,D]2 x2 | x4 | x4 | x4 | %152
 x4 | x4 | x4 | [A,A]2 [F,F]>[G,G] | [A,A] [^B,F^^G]2 [CFA] | [CFA]2 [DF]2 | %158
 (3[CF][DF][CF] (3[A,F][F,F][G,F] | [A,F]2 [F,F]>[G,G] | [A,A] [^B,F^^G]2 [CFA] | [CFA]2 [DF]2 | %162
[K:F#][K:treble] x4 | x4 | x4 | x4 | x4 | %167
[K:treble] x2[K:bass] [^^C,^^C]/[D,D]/[I:staff +1][^^D,,^^D,]/[E,,E,]/ | %168
 x2[I:staff -1][K:treble] x2 | x [^Bd]/[Bd]/ [Bd] x | [Gf]2 [Ff]g | x4 | x4 | x4 | z2 [DFG]2 | x4 | %176
 x4 | x4 | x4 | (6:4:6=a/f/=d/=A/[I:staff +1]F/=A,/ x2 | %180
[I:staff -1] (6:4:6e'/c'/=a/=e/[I:staff +1]c/=A/ =E2 | %181
[I:staff -1] =e'/4=d'/4g/4e/4 x f'/4d'/4b/4g/4 x |!8va(! x4!8va)! | %183
 (6:4:6=a/f/=d/=A/[I:staff +1]F/=A,/ x2 |[I:staff -1] (6:4:6e'/c'/=a/=e/[I:staff +1]c/=A/ =E2 | %185
[I:staff -1] (6:4:6e'/4c'/4a/4g/4[I:staff +1]e/4c/4 G[I:staff -1] (6:4:6^^f'/4d'/4^b/4g/4[I:staff +1]f/4d/4 G | %186
!8va(![I:staff -1] (6:4:6c''/g'/e'/c'/!8va)![I:staff +1]e/G/ C x | %187
[I:staff -1] (6:4:6c'/=a/f/c/[I:staff +1]=A/F/ x2 | %188
[I:staff -1] (6:4:6c/g/e/c/[I:staff +1]E/G,/ x2 | %189
[I:staff -1] (6:4:6c'/=a/f/c/[I:staff +1]=A/F/ x2 | %190
[I:staff -1] (6:4:6c/g/e/c/[I:staff +1]E/G,/ x2 | %191
[I:staff -1] (6:4:6c'/=a/f/c/[I:staff +1]=A/F/ x2 | %192
[I:staff -1] (6:4:6c'/=a/f/c/[I:staff +1]=A/F/ x2 | %193
[I:staff -1] (6:4:6c/^^f/=e/c/[I:staff +1]^^F/=E/ x2 | x4 |!8va(! x4 | x2!8va)! x2 | x4 | %198
 x3!8va(! x | x4 | x2!8va)! x2 | x4 | x4 | x4 | x4 | x4 | x4 | x4 | x4 | x2!8va(! x2 | %210
 x2!8va)! x2 | x4 | x4 | x4 | x4 | x4 | x4 | x2!8va(! x2!8va)! | x2!8va(! x!8va(! x!8va)! | x4 | %220
 x!8va)! x3 | x4 | x4 | x4 |!8va(! x4 | x4 | x4 | x4 | x4 | x4 | x4 | x4 | x4 | x4 | x4!8va)! |] %235
[I:staff -1] (6:4:6a/4f/4c/4[I:staff +1]A/4F/4C/4 A,[I:staff -1] (6:4:6f'/4c'/4a/4[I:staff +1]f/4c/4A/4 F | %236
[I:staff -1] (6:4:6g'/4f'/4d'/4g/4[I:staff +1]f/4d/4 G[I:staff -1] (6:4:6c'/4g/4e/4c/4[I:staff +1]b/4g/4 c | %237
[I:staff -1] (6:4:6f/c'/a/f/[I:staff +1]a/c/ F2 |][K:D]!8va(! x4 | x4 | x4 | %241
 x[I:staff -1] c''/4a''/4c''/4b'/4 x2 | x4 | x4 | x4 | x4!8va)! |!8va(! x4 | x4 | x4 | x4 | %250
 [ac'a']2 x2!8va)! | x2!8va(! x2 | [e^ge']2!8va)! x2 |!8va(! x4!8va)! |!8va(! x4 | x4 | x4 | x4 | %258
 [ac'a']2 x2!8va)! | x2!8va(! x2!8va)! | [E^Ge]2!8va(! x!8va)! x | x!8va(! x3 | x2!8va)! x2 | x4 | %264
 x4 | x4 | x4 | x4 | x4 | x4 | x4 | x4 |[K:treble] x2[K:bass] x2 |[K:treble] x4 | x4 | x4 | x4 | %277
 x3!8va(! x!8va)! | x4 | x4 | x4 | x4 | x4 | x4 |!8va(! x2!8va)![K:bass] x2 |[K:treble] x4 | x4 | %287
 x4 |][K:F#] x4 | x4 | x4 | x4 | x4 | x4 | x4 | x4 | x4 | x4 |!8va(! x4 | x4 | x4 | x4 | %302
 x2!8va)![K:bass] x2 |[K:treble] F,/[A,C]/ x3 | z [^Bd]/[Bd]/ [Bd] x | x2!8va(! x2 | x4 | x4 | x4 | %309
 x4 | x2!8va)![K:bass] x2 |[K:treble] F,/[A,C]/ x3 | z [^Bd]/[Bd]/ [Bd] x | c[eg]/[eg]/ x2 | %314
!8va(! x3/2!8va)! x5/2 | x4 | x7/2!8va(! x/ | x4 | x4 | x4!8va)! | x4 |] %321
V:3
 x4 | x4 | x4 | x4 | x4 | x4 | x4 | x4 | x4 | x4 | x4 | [F,C]4 | [E,A,^^C]4 | [D,A,D]2 x2 | %14
 x2 [C,B,]2 | [F,A,]4 | x4 | x4 | x4 | x4 | x4 | x4 | x4 | x4 | x4 | x4 | x4 | [F,C]4 | %28
 [E,A,^^C]4 | [D,A,D]2 x2 | x2 [C,B,]2 | [F,A,]2 z2 | [E,A,^^C]4 | [D,A,D]2 [^B,,F,^^G,]2 | %34
 [C,F,A,]2 [C,B,]2 | [F,A,]4 | [E,A,^^C]4 | [D,A,D]2 x2 | x2 [C,B,]2 | [F,A,]2 z2 | [E,A,^^C]4 | %41
 [D,A,D]2 [^B,,F,^^G,]2 | [C,F,A,]2 [C,B,]2 | [F,A,]4 | [E,A,^^C]4 | [D,A,D]2 x2 | x2 [C,B,]2 | %47
 [F,A,]2 z2 | z2 [F,F]>[G,G] | [A,A]2 [A,A]>[G,G] | [F,F]2 [D,D]>[E,E] | %51
"^As the Author plays it." [F,F]2[K:treble] [^B,F=A^B]2 |[K:bass] z2 [D,D]>[E,E] | %53
 [F,F]2 [F,F]>[E,E] | [D,D]2 [^B,,^B,]>[C,C] | [D,D]2[K:treble] [^B,F=A^B]2 |[K:bass] z4 | %57
 [C,,C,]2[K:treble] [CGc]2 |[K:bass] [B,,,B,,]2[K:treble] [B,CEB]2 | %59
[K:bass] [A,,,A,,]2[K:treble] [A,CFA]2 |[K:bass] [D,,,D,,]2[K:treble] [CFAc]2 | %61
[K:bass] [G,,,G,,]2[K:treble] [DFGd]2 |[K:bass] [G,,,G,,]2[K:treble] [DFGd]2 | %63
[K:bass] [C,,,C,,]2[K:treble] [EGce]2 |[K:bass] x4 | x4 | x4 | %67
[K:bass] [F,F]2[K:treble] [^B,F=A^B]2 |[K:bass] z2 [D,D]>[E,E] | [F,F]2 [F,F]>[E,E] | %70
 [D,D]2 [^B,,^B,]>[C,C] | [D,D]2[K:treble] [^B,F=A^B]2 |[K:bass] z4 | [C,,C,]2[K:treble] [CGc]2 | %74
[K:bass] [B,,,B,,]2[K:treble] [B,CEB]2 |[K:bass] [A,,,A,,]2[K:treble] [A,CFA]2 | %76
[K:bass] [D,,,D,,]2[K:treble] [CFAc]2 |[K:bass] [G,,,G,,]2[K:treble] [DFGd]2 | %78
[K:bass] [G,,,G,,]2[K:treble] [DFGd]2 |[K:bass] [C,,,C,,]2[K:treble] [EGce]2 | %80
[K:bass] z2 [C,,C,]2 |!ppp! [F,,,F,,][^E,,,^E,,]/[F,,,F,,]/ x2 | x4 | z2 [F,,F,]>[E,,E,] | %84
 [D,,D,]2 [C,,C,]2 | [F,,,F,,][^E,,,^E,,]/[F,,,F,,]/ z2 | x4 | z2 [F,,F,]>[E,,E,] | %88
 [D,,D,]2 [=D,,=D,]2 | [F,,,F,,][^E,,,^E,,]/[F,,,F,,]/ x2 | x4 | z2 [=C,,=C,]>[B,,,B,,] | %92
 [G,,,G,,]2 [C,,C,]2 | [F,,,F,,][^E,,^E,]/[F,,F,]/ x2 | x2[K:treble] x2 | z2[K:bass] [F,F]>[E,E] | %96
 [D,D]2 [C,C]2 | [F,,F,][^E,,^E,]/[F,,F,]/ x2 | x2[K:treble] x2 | z2[K:bass] [F,F]>[E,E] | %100
 [D,D]2 [=D,=D]2 | [C,C][^B,,^B,]/[C,C]/ x2 | x[K:treble] x z2 | z2[K:bass] [=C,=C]>[B,,B,] | %104
 [G,,G,]2 [C,C]2 | [F,,F,][E,,,E,,]/[F,,,F,,]/ x2 | x4 | x2[K:treble] x2 | x4 | z4 | z4 | z4 | z4 | %113
 z4 |[K:bass] z2 [F,,F,]>[G,,G,] | [A,,A,][A,,A,][A,,A,]>[G,,G,] | [F,,F,]2 [D,,D,]>[E,,E,] | %117
 [F,,F,][F,,F,][F,,F,]>[E,,E,] | [D,,D,]2 [=D,,=D,]2 | [C,,C,]4 | [A,,,A,,][C,,C,][F,,F,][A,,A,] | %121
 [G,,G,]3 [A,,A,] | [G,,G,]2 [F,,F,]>[G,,G,] | [A,,A,][A,,A,][A,,A,]>[G,,G,] | %124
 [F,,F,]2 [D,,D,]>[E,,E,] | [F,,F,][F,,F,][F,,F,]>[E,,E,] | [D,,D,]2 [=D,,=D,]2 | %127
 [C,,C,][^B,,,^B,,][=B,,,=B,,][A,,,A,,] | [G,,,G,,]2 [C,,C,]2 | [F,,,F,,]2 [A,CFA]2 | z4 | x4 | %132
 x4 | x4 | x4 | x4 | x4 | x4 | x4 | [F,C]2 ^^C,2 | D,2 ^^G,2 | [A,D]2 [G,^^C]2 | F,2 [F,G,]2 | %143
 [E,G,]4 | F,C,A,,F,, | G,,4 | C,3 C | [F,C]2 ^^C,2 | D,2 ^^G,2 | [A,D]2 [G,^^C]2 | F,2 [F,G,]2 | %151
 [E,G,]4 | F,C,A,,F,, | G,,2 C,,2 | F,,4 | x4 | x4 | x4 | x4 | x4 | x4 | x4 |[K:F#][K:bass] x4 | %163
 x4 | x4 | x4 | x4 |[K:bass] [C,,C,][^B,,,^B,,]/[C,,C,]/ z2 | z [C,,C,] [A,,,A,,][F,,,F,,] | %169
 [G,,,G,,][G,^B,E][G,B,E][G,B,E] | [C,,C,]EDC | [F,CF]2 [E,A,E]2 | [D,A,D]2 [B,,,B,,]2 | %173
 [A,,,A,,]2 [A,,G,^^C]2 | [B,,F,B,]2 [^B,,F,G,^B,]2 | %175
 [C,,C,][^B,,,^B,,]/[C,,C,]/ [^^C,,^^C,]/[D,,D,]/[^^D,,^^D,]/[E,,E,]/ | %176
 [F,,F,][C,,C,][A,,,A,,][F,,,F,,] | [G,,,G,,]2 [C,,,C,,]2 | [F,,,F,,]4 | D,2 =D,2 | %180
 C,2[K:treble] x2 |[K:bass] B,,2[K:treble] [=EB=d]2 |[K:bass] A,,2[K:treble] x2 | %183
 =D2[K:bass] =D,2 | C,2[K:treble] x2 |[K:bass] G,2[K:treble] x2 | x4 |[K:bass] C,,2[K:treble] C2 | %188
[K:bass] C,,2 C,2 | C,,2[K:treble] C2 |[K:bass] C,,2 C,2 | C,,2[K:treble] C2 | %192
[K:bass] C,,2[K:treble] C2 |[K:bass] C,,2 C2 |"^un poco rit" C,,2[K:treble] [C^E=B]2 | %195
 [Cc]2 [A,A]>[B,B] | [Cc]2 [Dd]2 | [Cc]2 [A,A]>[B,B] | [Cc]2 [ea]/[cg]/ x | [Cc]2 [A,A]>[B,B] | %200
 [Cc]2 [Dd]2 | [Cc]2 [A,A]>[B,B] | [Cc]2 [Dd][Ee] | F[Acf] =D[^E^A^^c] | ^D[FAd] B,[F=AB] | %205
 A,[FAd] A,[GA^^c] | B,[DFB] ^B,[FG^B] | [CEG]2[K:bass] x2 | x4 |[K:treble] x4 | x3 [Be] | %211
 F[Acf] =D[^E^A^^c] | ^D[FAd] B,[F=AB] | A,[FAd] A,[GA^^c] | B,[DFB] ^B,[FG^B] | %215
 [CEG]2[K:bass] x2 |[K:treble] x4 | x4 | x4 | x4 | x4 | x4 | x4 | x4 | x4 | z4 | %226
 z2[K:bass] [=D,,=D,]>[=E,,=E,] | [F,,F,]4 | [F,,F,]2 [=E,,=E,]2 | [=D,,=D,]4 | %230
 z2 [B,,,B,,]>[C,,C,] | [=D,,=D,]4 | [=D,,=D,]2 [C,,C,]2 | [B,,,B,,]4 | %234
[K:treble] [B,=D^E^GB]2 [CFAc][DEG=d] |] x4 | x4 | x4 |][K:D]"^Volante." [Adfa]2 [FAdf]>"^M.D."g | %239
 [Adfa] [Bd^e^gb]2 [Adfa] | [Adfa]2 [FAdf]>"^M.D."g | [Acea]4 | [Adfa]2 [FAdf]>"^M.D."g | %243
 [Adfa] [Bd^e^gb]2 [Adfa] | [Adfa]2 [FAdf]>"^M.D."g | [Acea]4 | [F^Af]2 [FAf]>[Ee] | %247
 [Dd]2 [B,B][Cc] | [DFd]2 [Dd][Cc] | [B,=D^EB]2 z2 | [Aeg]2 x2 | [F,F][A,A] [Dd][Ff] | %252
 [EBd]2 x7/4 f/4 | [EAce]2 [DFAd]>[Ee] | [F^Af]2 [FAf]>[Ee] | [Dd]2 [B,B][Cc] | [DFd]2 [Dd][Cc] | %257
 [B,=D^EB]2 z2 | [Aeg]2 x2 | [F,F][A,A] [Dd][Ff] | x4 | [Ac]2 x2 | %262
[K:bass] [D,,D,]2[K:treble] [af']2 | [Af]2[K:bass] [D,,D,]>[E,,E,] | [F,,F,][^A,CF][A,CF][A,CF] | %265
 [F,,F,]2 [E,,E,]2 | [D,,D,][F,B,DF][F,B,DF][F,B,DF] | [F,B,DF]2 [B,,,B,,]>[C,,C,] | z4 | z4 | x4 | %271
 x4 |[K:bass] [C,,C,][^B,,,^B,,]/[C,,C,]/ x2 | x4 | z[K:treble] [C^EB] [CEB][CEB] | %275
 [C^EB][CEB][CEB][CEB] |[K:bass] [^A,,,^A,,] x3 | x4 | z [^A,CF^A] [A,CFA][A,CFA] | %279
 [^A,CF^A][A,CFA][A,CFA][A,CFA] | [^D,,,^D,,][^^F,,^^F,]/[^G,,^G,]/ x2 |[K:treble] x4 | %282
 z [^G^Bf] [GBf][GBf] | [^G^Bf][GBf][GBf][GBf] |[K:bass] [C,,C,][^B,,,^B,,]/[C,,C,]/ x2 | x4 | %286
 z [^G,B,C^E] [G,B,CE][C,,C,] | [^B,,,^B,,][=B,,,=B,,][^A,,,^A,,][^G,,,^G,,] |] %288
[K:F#] [F,,,F,,][A,CF] [F,,,F,,][A,CF] | [F,,,F,,][A,CF] [F,,,F,,][A,CF] | %290
 [F,,,F,,][A,CF] [F,,,F,,][A,CF] | [F,,,F,,][A,CF] [F,,,F,,][^B,DF^^G] | %292
 [F,,,F,,][A,CF] [F,,,F,,][A,CF] | [C,,,C,,][G,CE] [C,,,C,,][G,CE] | %294
 [F,,,F,,][A,CF] [F,,,F,,][A,CF] | [F,,,F,,][A,CF] [F,,,F,,][^B,DF^^G] | %296
 [F,,,F,,][A,CF] [F,,,F,,][A,CF] | [C,,,C,,][E,G,CE] [C,,,C,,][E,G,CE] | %298
 [F,,,F,,][A,CF] [A,,,A,,][G,^A,^^C] | [D,,,D,,][D,F,D] [B,,,B,,][F,^^G,D] | %300
 [A,,,A,,][F,A,D] [A,,,A,,][^G,A,^^C] | [B,,,B,,][F,B,D] [^B,,,^B,,][G,^B,F] | %302
 [C,,C,][^B,,,^B,,]/[C,,C,]/ x2 | z [C,,C,] [A,,,A,,][F,,,F,,] | %304
 [D,,,D,,][G,^B,F] [G,,,G,,][G,B,F] | [E,,,E,,][G,CE] [E,,,E,,][G,CE] | %306
 [E,,,E,,][A,CF] [A,,,A,,][G,^A,^^C] | [D,,,D,,][D,F,D] [A,,,A,,][G,A,^^C] | %308
 [A,,,A,,][F,A,D] [A,,,A,,][^G,A,^^C] | [B,,,B,,][F,B,D] [^B,,,^B,,][G,^B,F] | %310
 [C,,C,][^B,,,^B,,]/[C,,C,]/ x2 | z [C,,C,] [A,,,A,,][F,,,F,,] | %312
 [D,,,D,,][G,^B,F] [G,,,G,,][G,B,F] | [E,,,E,,][E,G,CE] [E,,,E,,][E,G,CE] | %314
 [F,,,F,,]>[F,A,CF] [F,A,CF]>[D,F,B,D] | [D,F,B,D]>[C,F,A,C] [C,F,A,C]>[B,,D,F,B,] | %316
 [B,,D,F,B,]>[A,,C,F,A,] [A,,C,F,A,]>[G,,B,,D,G,] | [G,,B,,D,G,]>[C,,G,,C,] [C,,G,,C,]>[F,,,F,,] | %318
 [F,,,F,,]4 |[K:treble] [A,CFA]4 |[K:bass] !fermata![F,,,F,,]4 |] %321
V:4
 x4 | x4 | x4 | x4 | x4 | x4 | x4 | x4 | x4 | x4 | x4 | x4 | x4 | x4 | x4 | x4 | x4 | x4 | x4 | %19
 x4 | x4 | x4 | x4 | x4 | x4 | x4 | x4 | x4 | x4 | x4 | x4 | x4 | x4 | x4 | x4 | x4 | x4 | x4 | %38
 x4 | x4 | x4 | x4 | x4 | x4 | x4 | x4 | x4 | x4 | x2 [F,,,F,,]>[G,,,G,,] | %49
 [A,,,A,,]2 [A,,,A,,]>[G,,,G,,] | [F,,,F,,]2 [D,,,D,,]>[E,,,E,,] | [F,,,F,,]2[K:treble] x2 | %52
[K:bass] x2 [D,,,D,,]>[E,,,E,,] | [F,,,F,,]2 [F,,,F,,]>[E,,,E,,] | %54
 [D,,,D,,]2 [^B,,,,^B,,,]>[C,,,C,,] | [D,,,D,,]2[K:treble] x2 |[K:bass] x4 | x2[K:treble] x2 | %58
[K:bass] x2[K:treble] x2 |[K:bass] x2[K:treble] x2 |[K:bass] x2[K:treble] x2 | %61
[K:bass] x2[K:treble] x2 |[K:bass] x2[K:treble] x2 |[K:bass] x2[K:treble] x2 |[K:bass] x4 | x4 | %66
 x4 |[K:bass] [F,,,F,,]2[K:treble] x2 |[K:bass] x2 [D,,,D,,]>[E,,,E,,] | %69
 [F,,,F,,]2 [F,,,F,,]>[E,,,E,,] | [D,,,D,,]2 [^B,,,,^B,,,]>[C,,,C,,] | [D,,,D,,]2[K:treble] x2 | %72
[K:bass] x4 | x2[K:treble] x2 |[K:bass] x2[K:treble] x2 |[K:bass] x2[K:treble] x2 | %76
[K:bass] x2[K:treble] x2 |[K:bass] x2[K:treble] x2 |[K:bass] x2[K:treble] x2 | %79
[K:bass] x2[K:treble] x2 |[K:bass] x4 | x4 | x4 | x4 | x4 | x4 | x4 | x4 | x4 | x4 | x4 | x4 | x4 | %93
 x4 | x2[K:treble] x2 | x2[K:bass] x2 | x4 | x4 | x2[K:treble] x2 | x2[K:bass] x2 | x4 | x4 | %102
 x[K:treble] x3 | x2[K:bass] x2 | x4 | x4 | x4 | x2[K:treble] x2 | x4 | x4 | x4 | x4 | x4 | x4 | %114
[K:bass] x4 | x4 | x4 | x4 | x4 | x4 | x4 | x4 | x4 | x4 | x4 | x4 | x4 | x4 | x4 | x4 | x4 | x4 | %132
 x4 | x4 | x4 | x4 | x4 | x4 | x4 | x4 | x2 B,,2 | A,,2 A,,2 | B,,2 ^B,,2 | %143
 C,^B,,/C,/ ^^C,/D,/=E,/^E,/ | x4 | x4 | x4 | x4 | x2 B,,2 | A,,2 A,,2 | B,,2 ^B,,2 | %151
 C,^B,,/C,/ ^^C,/D,/=E,/^E,/ | x4 | x4 | x4 | x4 | x4 | x4 | x4 | x4 | x4 | x4 |[K:F#][K:bass] x4 | %163
 x4 | x4 | x4 | x4 |[K:bass] x4 | x4 | x4 | x4 | x4 | x4 | x4 | x4 | x4 | x4 | x4 |x[A,CF] x2 | %179
 x4 | x[K:treble] x3 |[K:bass] x2[K:treble] x2 |[K:bass] x[K:treble] x3 | x[K:bass] x3 | %184
 x[K:treble] x3 |[K:bass] x/[K:treble] x7/2 | x4 |[K:bass] x[K:treble] x3 |[K:bass] x4 | %189
 x[K:treble] x3 |[K:bass] x4 | x[K:treble] x3 |[K:bass] x[K:treble] x3 |[K:bass] x4 | %194
 x2[K:treble] x2 | x [FA] x [CF] | x [FA] x [FB] | x [FA] x2 | x4 | x [FA] x [CF] | x [FA] x [FB] | %201
 x [FA] x2 | x4 | x4 | x4 | x4 | x4 | x[K:bass] x3 | x4 |[K:treble] x4 | x4 | x4 | x4 | x4 | x4 | %215
 x[K:bass] x3 |[K:treble] x4 | x4 | x4 | x4 | x4 | x4 | x4 | x4 | x4 | x4 | x2[K:bass] x2 | x4 | %228
 x4 | x4 | x4 | x4 | x4 | x4 |[K:treble] x4 |] x4 | x4 | x4 |][K:D] x4 | x4 | x4 | x4 | x4 | x4 | %244
 x4 | x4 | x4 | x4 | x4 | x4 | x4 | x4 | x4 | x4 | x4 | x4 | x4 | x4 | x4 | x4 | x4 | x4 | %262
[K:bass] x2[K:treble] x2 | x2[K:bass] x2 | x4 | x4 | x4 | x4 | x4 | x4 | x4 | x4 |[K:bass] x4 | %273
 x4 | x[K:treble] x3 | x4 |[K:bass] x4 | x4 | x4 | x4 | x4 |[K:treble] x4 | x4 | x4 |[K:bass] x4 | %285
 x4 | x4 | x4 |][K:F#] x4 | x4 | x4 | x4 | x4 | x4 | x4 | x4 | x4 | x4 | x4 | x4 | x4 | x4 | x4 | %303
 x4 | x4 | x4 | x4 | x4 | x4 | x4 | x4 | x4 | x4 | x4 | x4 | x4 | x4 | x4 | x4 |[K:treble] x4 | %320
[K:bass] x4 |] %321
V:5
 x4 | x4 | x4 | x4 | x4 | x4 | x4 | x4 | x4 | x4 | x4 | x4 | x4 | x4 | x4 | x4 | x4 | x4 | x4 | %19
 x4 | x4 | x4 | x4 | x4 | x4 | x4 | x4 | x4 | x4 | x4 | x4 | x4 | x4 | x4 | x4 | x4 | x4 | x4 | %38
 x4 | x4 | x4 | x4 | x4 | x4 | x4 | x4 | x4 | x4 | x4 | x4 | x4 | x2!8va(! x2!8va)! | x4 | x4 | %54
 x4 | x2!8va(! x2!8va)! | x4 | x2!8va(! x2!8va)! | x2!8va(! x2!8va)! | x2!8va(! x2!8va)! | %60
 x2!8va(! x2!8va)! | x2!8va(! x2!8va)! | x2!8va(! x2!8va)! | x2!8va(! x2!8va)! | x4 | x4 | x4 | %67
[K:treble] x2!8va(! x2!8va)! | x4 | x4 | x4 | x2!8va(! x2!8va)! | x4 | x2!8va(! x2!8va)! | %74
 x2!8va(! x2!8va)! | x2!8va(! x2!8va)! | x2!8va(! x2!8va)! | x2!8va(! x2!8va)! | %78
 x2!8va(! x2!8va)! | x2!8va(! x2!8va)! | x4 | x2[K:bass] x2 | x2[K:treble] x2 | x4 | x4 | %85
 x2[K:bass] x2 | x2[K:treble] x2 | x4 | x4 | x2[K:bass] x2 |[K:treble] x4 | x4 | x4 | x4 | x4 | %95
 x4 | x4 | x4 | x4 | x2!8va(! x2 | x4 | x2!8va)! x2 | x4 | x4 | x4 | x2[K:bass] x2 | %106
 x2[K:treble] x2 | x4 | x4 |!8va(! x4!8va)! | x4 | x4 | x4 | x4 | x4 | x4 | x4 | x4 | x4 | x4 | %120
 x4 | x4 | x4 | x4 | x4 | x4 | x4 | x4 | x4 | x4 | x4 | x4 | x4 | x4 | x4 | x4 | x4 | x4 | x4 | %139
 x4 | x4 | x4 | x4 | x4 | x4 | x4 | x4 | x4 | x4 | x4 | x4 | x4 | x4 | x4 | x4 | x4 | x4 | x4 | %158
 x4 | x4 | x4 | x4 |[K:F#][K:treble] x4 | x4 | x4 | x4 | x4 |[K:treble] x2[K:bass] x2 | %168
 x2[K:treble] x2 | x4 | x4 | x4 | x4 | x4 | x4 | x4 | x4 | x4 | x4 | x4 | (6:4:5x/ x/ =a x/ x/ x2 | %181
 x4 |!8va(! x4!8va)! | x4 | x4 | x4 |!8va(! x4/3!8va)! x8/3 | x4 | x4 | x4 | x4 | x4 | x4 | x4 | %194
 x4 |!8va(! x4 | x2!8va)! x2 | x4 | x3!8va(! x | x4 | x2!8va)! x2 | x4 | x4 | x4 | x4 | x4 | x4 | %207
 x4 | x4 | x2!8va(! x2 | x2!8va)! x2 | x4 | x4 | x4 | x4 | x4 | x4 | x2!8va(! x2!8va)! | %218
 x2!8va(! x!8va(! x!8va)! | x4 | x!8va)! x3 | x4 | x4 | x4 |!8va(! x4 | x4 | x4 | x4 | x4 | x4 | %230
 x4 | x4 | x4 | x4 | x4!8va)! |] x4 | x4 | x4 |][K:D]!8va(! x4 | x4 | x4 | x4 | x4 | x4 | x4 | %245
 x4!8va)! |!8va(! x4 | x4 | x4 | x4 | x4!8va)! | x2!8va(! x2 | x2!8va)! x2 |!8va(! x4!8va)! | %254
!8va(! x4 | x4 | x4 | x4 | x4!8va)! | x2!8va(! x2!8va)! | x!8va(! x2!8va)! x | x!8va(! x3 | %262
 x2!8va)! x2 | x4 | x4 | x4 | x4 | x4 | x4 | x4 | x4 | x4 |[K:treble] x2[K:bass] x2 | %273
[K:treble] x4 | x4 | x4 | x4 | x3!8va(! x!8va)! | x4 | x4 | x4 | x4 | x4 | x4 | %284
!8va(! x2!8va)![K:bass] x2 |[K:treble] x4 | x4 | x4 |][K:F#] x4 | x4 | x4 | x4 | x4 | x4 | x4 | %295
 x4 | x4 | x4 |!8va(! x4 | x4 | x4 | x4 | x2!8va)![K:bass] x2 |[K:treble] x4 | x4 | x2!8va(! x2 | %306
 x4 | x4 | x4 | x4 | x2!8va)![K:bass] x2 |[K:treble] x4 | x4 | x4 |!8va(! x3/2!8va)! x5/2 | x4 | %316
 x7/2!8va(! x/ | x4 | x4 | x4!8va)! | x4 |] %321
V:6
 z4 | z4 | z4 | z4 | z4 | z4 | z4 | z4 | z4 | z4 | z4 | z4 | z4 | z4 | z4 | z4 | z4 | z4 | z4 | %19
 z4 | z4 | z4 | z4 | z4 | z4 | z4 | z4 | z4 | z4 | z4 | z4 | z4 | z4 | z4 | z4 | z4 | z4 | z4 | %38
 z4 | z4 | z4 | z4 | z4 | z4 | z4 | z4 | z4 | z4 | z4 | z4 | z4 |!ppp! x2 [=A^Bdf]2 | x4 | x4 | %54
 x4 | x2 [=A^Bdf]2 | z4 | z2 [cegc']2 | z2 [cegc']2 | z2 [cfac']2 | z2 [dfad']2 | z2 [dg^bd']2 | %62
 z2 [dg^bd']2 | z2 [egc'e']2 |!ff! z2 x2 | x4 | x4 |!ppp! x2 [=A^Bdf]2 | x4 | x4 | x4 | %71
 x2 [=A^Bdf]2 | z4 | z2 [cegc']2 | z2 [cegc']2 | z2 [cfac']2 | z2 [dfad']2 | z2 [dg^bd']2 | %78
 z2 [dg^bd']2 | z2 [egc'e']2 | z2 [Cc]2 |!fff! [FAcf]>C F/4A/4c/4f/4 a/4c'/4!8va(!f'/4c''/4 | %82
 (6:4:6(a'/f'/c'/a/!8va)!f/c/) (5:4:5(A/F/C/A,/F,/) | z2 [FAcf]>[FAcf] | [FAdf]2 [Gceg]2 | %85
 [Acfa]>C F/4A/4c/4f/4 a/4c'/4!8va(!f'/4c''/4 | %86
 (6:4:6(a'/f'/c'/a/!8va)!f/c/) (5:4:5(A/F/C/A,/F,/) | z2 [Acfa]>[Acfa] | [Afa]2 [Bfb]2 | %89
 [cegc']2 (5:4:5E/4G/4c/4e/4g/4 c'/4e'/4!8va(!g'/4e''/4 | %90
 (6:4:6c''/g'/e'/c'/!8va)!g/e/ (6:4:6c/G/E/[I:staff +1]C/G,/E,/ | %91
[I:staff -1] z2 [=df=a=d']>[^dfb^d'] | [=egb=e']2 [^ebc'^e']2 | %93
!8va(! [fac'f']>!8va)!C F/4A/4c/4f/4 a/4c'/4!8va(!f'/4c''/4 | %94
 (6:4:6(a'/f'/c'/a/!8va)!f/c/) (5:4:5(A/F/C/A,/F,/) | z2!8va(! [fac'f']>[fac'f'] | %96
 [fad'f']2 [gc'e'g']2 | [ac'f'a']>!8va)!C F/4A/4c/4f/4 a/4c'/4!8va(!f'/4c''/4 | %98
 (6:4:6(a'/f'/c'/a/!8va)!f/c/) (5:4:5(A/F/C/A,/F,/) | z2 [Acfa]>[Acfa] | [Afa]2 [Bfb]2 | %101
 [cegc']2 (5:4:5E/4G/4c/4e/4g/4 c'/4e'/4!8va(!g'/4e''/4 | %102
 (6:4:6c''/g'/e'/c'/!8va)!g/e/ (6:4:6c/G/E/[I:staff +1]C/G,/E,/ | %103
[I:staff -1] z2 [=df=a=d']>[^dfb^d'] | [=egb=e']2 [^ebc'^e']2 | %105
!8va(! [fac'f']>!8va)!C F/4A/4c/4f/4 a/4c'/4!8va(!f'/4c''/4 | %106
 (6:4:6(a'/f'/c'/a/!8va)!f/c/) (5:4:5(A/F/C/A,/F,/) | %107
 z[I:staff +1] [F,A,CF][I:staff -1][A,CFA][CFAc] | [FAcf][FAcf][Acfa][cfac'] | %109
 [fac'f'][fac'f'] z2 |!fff! z2 [Ff]>[Gg] | [Aa][Aa][Aa]>[Gg] | [Ff]2 [Dd]>[Ee] | %113
 [Ff][Ff][Ff]>[Ee] | z4 | z4 | z4 | z4 | z4 | z4 | z4 | z4 | z4 | z4 | z4 | z4 | z4 | z4 | z4 | %129
 z4 | z4 | z4 | z4 | z4 | z4 | z4 | z4 | z4 | z4 | z4 | z4 | z4 | z4 | z4 | z4 | z4 | z4 | z4 | %148
 z4 | z4 | z4 | z4 | z4 | z4 | z4 | z4 | z4 | z4 | z4 | z4 | z4 | z4 | [Gg]2 [Ff]>[Gg] | %163
 [Aa][Aa][Aa]>[Gg] | [Ff]2 [Dd]>[Ee] | [Ff][Ff][Ff]>[Ee] | [Dd]4 |!ppp! [CEGc]4 | %168
 [A,CFA][CFAc][FAcf][Acfa] | z4 | z4 | z4 | z4 | z4 | z4 | z4 | z4 | z4 | z4 | z4 | z4 | z4 | z4 | %183
 z4 | z4 | z4 | z4 | z4 | z4 | z4 | z4 | z4 | z4 | z4 | z4 |"^Grazioso."!ppp! [cc']2 [Aa]>[Bb] | %196
 [cc']2 [dd']2 | [cc']2 [Aa]>[Bb] | [cc']4 |"^Grazioso." [cc']2 [Aa]>[Bb] | [cc']2 [e^^ge'][dd'] | %201
 [cc']2 [Aa]>[Bb] | [cc']2!8va(! [fd'f']>[gc'g'] | [aa'][aa'] [aa']>[gg'] | [ff']2 [dd']>[ee'] | %205
 [ff'][ff'] [ff']>[ee'] | [dd']2 [dd']2!8va)! | [cc']2!8va(! [c'c'']2!8va)! | ac' f'a' | %209
 [gg']3 [aa'] | [gg']2 [fd'f']>[gc'g'] |!8va(! [aa'][aa'] [aa']>[gg'] | [ff']2 [dd']>[ee'] | %213
 [ff'][ff'] [ff']>[ee'] | [dd']2 [dd']2!8va)! | [cc']2!8va(! [c'c'']2!8va)! | z4 | z4 | z4 | z4 | %220
 z4 | z4 | z4 | z4 | z4 | z4 | z4 | z4 | z4 | z4 | z4 | z4 | z4 | z4 | z4 |] z4 | z4 | z4 |] %238
[K:D] z4 | z4 | z4 | z4 | z4 | z4 | z4 | z4 | z4 | z4 | z4 | z4 | z4 | z4 | z4 | z4 | z4 | z4 | %256
 z4 | z4 | z4 | z4 | z4 | z4 | z4 | z4 | z4 | z4 | z4 | z4 |!ff! [fbd'f'][fbd'f'][fbd'f'][fbd'f'] | %269
 z [fbd'f'] z [fbd'f'] | z!8va(! [=a^d'f'=a'][ad'f'a'][ad'f'a'] | %271
 [=a^d'f'=a'][=ad'f'=a'][^gd'^g'][fd'f'] | %272
 [c'^e'^g'c'']!8va)! x B/4c/4^e/4b/4 c'/4e'/4!8va(!b'/4^e''/4 | %273
 (6:4:6c''/b'/^e'/c'/!8va)!b/^e/ (6:4:6c/B/^E/C/B,/[I:staff +1]^E,/ | %274
[I:staff -1] z [c^gc'] [^Bg^b][cgc'] | [^^c^g^^c'][^dg^d'][ebc'e'][^ebc'^e'] | %276
!f! [f^ac'f']2 F/4^A/4c/4e/4 ^a/4c'/4!8va(!f'/4c''/4 | %277
 (6:4:6^a'/f'/!8va)!c'/b/f/c/ (6:4:6^A/F/C/[I:staff +1]^A,/F,/C,/ | %278
[I:staff -1] z [fc'f'] [^ec'^e'][fc'f'] | [^ec'^e'][fc'f'][ec'e'][fc'f'] | %280
 [^g^b^d'f'^g']2!ff! (6:4:6(^G/4^B/4^d/4f/4^g/4^b/4) (7:4:7(^d'/4f'/4!8va(!g'/4^b'/4^d''/4f''/4a''/4) | %281
 ^g''/4f''/4^d''/4^b'/4 ^g'/4f'/4^d'/4b/4!8va)! ^g/4f/4^d/4B/4 ^G/4F/4^D/4^B,/4 | %282
 z [^g^d'^g'] [^^fd'^^f'][gd'g'] | [^^f^d'^^f'][^gd'^g'][fd'f'][gd'g'] | %284
!8va(! [c'^e'^g'c'']2!8va)! B/4c/4^e/4b/4 c'/4e'/4!8va(!b'/4^e''/4 | %285
 (6:4:6c''/b'/^e'/c'/!8va)!b/^e/ (6:4:6c/B/^E/C/B,/[I:staff +1]^E,/ | %286
!ff![I:staff -1] z [c^gc'][^Bg^b]!<(![cgc'] | [^^c^g^^c'][^dg^d'][=ec'=e'][^eb^e']!<)! |] %288
[K:F#]!ff!"^Trionfale." [faf']2 z2 | z4 | [cac']/[cac']/ z/ [cac']/ [Afa]/[Afa]/ z/ [Bgb]/ | %291
 [cac'][cac'][d^^gd'][dgd'] | [cac']/[cac']/ z/ [cac']/ [Afa]/[Afa]/ z/ [Bfb]/ | %293
 [cgc'][cgc'] z [cgc'] | [cac']/[cac']/ z/ [cac']/ [Afa]/[Afa]/ z/ [Bgb]/ | %295
 [cac'][cac'] [d^^gd'][dgd'] | [cac']/[cac']/ z/ [cac']/ [Afa]/[Afa]/ z/ [Bfb]/ | %297
 [cec'][cec'] [fd'f']>[ge'g'] |!8va(! [af'a'][af'a'] [af'a']>[ge'g'] | %299
 [fd'f'][fd'f'] [d^^gd']>[ege'] | [faf'][faf'] [faf']>[e^ge'] | [dfd'][dfd'] z [dfgd'] | %302
 [cec'][cec'] z [cec'] | [Afa][cc'] [faf'][ac'a'] | [g^bf'g'][gbf'g']/[gbf'g']/ [gbf'g'][ad'f'a'] | %305
 [ge'g'][ge'g'] [fd'f']>[ge'g'] | [af'a'][af'a'] [a^^c'a']>[ge'g'] | %307
 [fd'f'][fd'f'] [d^^gd']>[ege'] | [faf'][faf'] [faf']>[e^ge'] | [dfd'][dfd'] z [dfgd'] | %310
 [cec'][cec'] z [cec'] | [Afa][cc'] [faf'][ac'a'] | [g^bf'g'][gbf'g']/[gbf'g']/ [gbf'g'][ad'f'a'] | %313
 [c'e'c''][c'e'c'']/[c'e'c'']/ [c'e'c''][e'g'c'']!8va)! | z4 | z4 | z4 | z4 | z4 | z4 | z4 |] %321
V:7
 z4 | z4 | z4 | z4 | z4 | z4 | z4 | z4 | z4 | z4 | z4 | z4 | z4 | z4 | z4 | z4 | z4 | z4 | z4 | %19
 z4 | z4 | z4 | z4 | z4 | z4 | z4 | z4 | z4 | z4 | z4 | z4 | z4 | z4 | z4 | z4 | z4 | z4 | z4 | %38
 z4 | z4 | z4 | z4 | z4 | z4 | z4 | z4 | z4 | z4 | z4 | z4 | z4 | [F,F]2 [=A,^B,DF]2 | %52
 z2 [D,D]>[E,E] | [F,F]2 [F,F]>[E,E] | [D,D]2 [^B,,^B,]>[C,C] | [D,D]2 [=A,^B,DF]2 | z4 | %57
 [C,,C,]2 [E,G,C]2 | [B,,,B,,]2 [E,G,C]2 | [A,,,A,,]2 [E,G,C]2 | [D,,,D,,]2 [F,A,D]2 | %61
 [G,,,G,,]2 [G,^B,F]2 | [G,,,G,,]2 [G,^B,F]2 | [C,,C,]2 [G,CE]2 | z2 [F,F]>[G,G] | %65
 [A,A]2 [A,A]>[G,G] | [F,F]2 [D,D]>[E,E] | [F,F]2 [=A,^B,DF]2 |[K:bass] z2 [D,D]>[E,E] | %69
 [F,F]2 [F,F]>[E,E] | [D,D]2 [^B,,^B,]>[C,C] | [D,D]2 [=A,^B,DF]2 | z4 | [C,,C,]2 [E,G,C]2 | %74
 [B,,,B,,]2 [E,G,C]2 | [A,,,A,,]2 [E,G,C]2 | [D,,,D,,]2 [F,A,D]2 | [G,,,G,,]2 [G,^B,F]2 | %78
 [G,,,G,,]2 [G,^B,F]2 | [C,,C,]2 [G,CE]2 | z2 [C,,C,]2 | F,,/C,/A,/ x/ x2 |[K:treble] [CFAc]4 | %83
[K:bass] [F,,,F,,]2 [F,,F,]>[E,,E,] | [D,,D,]2 [C,,C,]2 | F,,/C,/A,/ x/ x2 |[K:treble] [CFAc]4 | %87
[K:bass] [F,,,F,,]2 [F,,F,]>[E,,E,] | [D,,D,]2 [=D,,=D,]2 | [C,,C,](3C,/G,/C/ x2 | %90
[K:treble] x2[K:bass] x2 | [C,,,C,,]2 [=C,,=C,]>[B,,,B,,] | [G,,,G,,]2 [C,,C,]2 | %93
 F,,/C,/A,/ x/ x2 |[K:treble] [CFAc]4 |[K:bass] [F,,,F,,]2 [F,F]>[E,E] | [D,,D,]2 [C,,C,]2 | %97
 F,,/C,/A,/ x/ x2 |[K:treble] [CFAc]4 |[K:bass] [F,,,F,,]2 [F,F]>[E,E] | [D,D]2 [=D,=D]2 | %101
 [C,,C,](3C,/G,/C/ x2 |[K:treble] x2[K:bass] x2 | [C,,,C,,]2 [=C,,=C,]>[B,,,B,,] | %104
 [G,,,G,,]2 [C,,C,]2 | F,,/C,/A,/ x/ x2 |[K:treble] [CFAc]4 |[K:bass]!ppp! [F,,,F,,]3 [C,C] | %108
 [A,,A,][F,,F,][C,,C,][A,,,A,,] | [F,,,F,,][A,CF] z2 | z4 | z4 | z4 | z4 | z4 | z4 | z4 | z4 | z4 | %119
 z4 | z4 | z4 | z4 | z4 | z4 | z4 | z4 | z4 | z4 | z4 | z4 | z4 | z4 | z4 | z4 | z4 | z4 | z4 | %138
 z4 | z4 | z4 | z4 | z4 | z4 | z4 | z4 | z4 | z4 | z4 | z4 | z4 | z4 | z4 | z4 | z4 | z4 | z4 | %157
 z4 | z4 | z4 | z4 | z4 | x2 [=B,=D]2 | [F,CF]2 [^^C,B,E]2 | [D,A,D]2 [^^G,B,]2 | %165
 [A,D]2 [A,,G,^^C]2 | [B,,F,B,]2 [^B,,F,G,^B,]2 | C,^B,,/C,/ ^^C,/D,/=E,/^E,/ | %168
 F,[C,,C,][A,,,A,,][F,,,F,,] | z4 | z4 | z4 | z4 | z4 | z4 | z4 | z4 | z4 | z4 | z4 | z4 | z4 | %182
 z4 | z4 | z4 | z4 | z4 | z4 | z4 | z4 | z4 | z4 | z4 | z4 | z4 |"^2 Ped." x[K:treble] x C2 | %196
[K:bass] F,,2[K:treble] ^B,2 | x2 C2 | x2 G,2 | x[K:treble] x C2 | x2 ^B,2 | %201
[K:bass] D2[K:treble] C2 |[K:bass] C,2[K:treble] C2 |[K:bass] F,2[K:treble] x2 | x4 | A, x x2 | %206
 x4 | x4 | x4 | x4 | x4 | F,2[K:treble] x2 | x4 | A, x x2 | x4 | x4 | z4 | z4 | z4 | z4 | z4 | z4 | %222
 z4 | z4 | z4 | z4 | z4 | z4 | z4 | z4 | z4 | z4 | z4 | z4 | z4 |] z4 | z4 | z4 |][K:D] z4 | z4 | %240
 z4 | z4 | z4 | z4 | z4 | z4 | z4 | z4 | z4 | z4 | z4 | z4 | z4 | z4 | z4 | z4 | z4 | z4 | z4 | %259
 z4 | z4 | z4 | z4 | z4 | z4 | z4 | z4 | z4 |[K:bass] [D,,D,][F,B,DF] [F,B,DF]2 | %269
 [D,,D,]2 [C,,C,]2 | [^B,,,^B,,][K:treble] [^B,^DF=A][B,DF=A][B,DF=A] | %271
 [^B,^DF=A][B,DF=A][B,D^G][B,DF] | %272
[K:bass] [C,,C,]C,/4E,/4C/4"^rapido."[I:staff -1] ^E/4[I:staff +1] x2 |[K:treble] [c^eb]4[K:bass] | %274
 [C,,,C,,][K:treble][C^EB][CEB][CEB] | [C^EB][CEB][CEB][CEB] |[K:bass] [C,,C,]C,/4E,/4^A,/4C/4 x2 | %277
[K:treble] [CF^Ac]4[K:bass] | [^A,,,^A,,][^A,CF^A][A,CFA][A,CFA] | [^A,CF^A][A,CFA][A,CFA][A,CFA] | %280
 (6:4:5([^D,,,^D,,]^D,/^G,/^B,/F/) x2 |[K:treble] [^G^Bf]4 | %282
[K:bass] z[K:treble] [^G^Bf] [GBf][GBf] | [^G^Bf][GBf][GBf][GBf] | %284
[K:bass] [C,,,C,,]C,/4^G,/4C/4[I:staff -1] ^E/4[I:staff +1] x2 |[K:treble] [^GBc^e]4[K:bass] | %286
 [C,,,C,,][^G,B,C^E][G,B,CE][C,,C,] | [^B,,,^B,,][=B,,,=B,,][^A,,,^A,,][^G,,,^G,,] |] %288
[K:F#] [F,,,F,,][A,CF] [F,,F,][A,CF] | [F,,F,][A,CF] [F,,F,][A,CF] | [F,,F,][A,CF] [F,,F,][A,CF] | %291
 [F,,F,][A,CF] [F,,F,][^B,DF^^G] | [F,,F,][A,CF] [F,,F,][A,CF] | [C,,C,][G,CE] [C,,C,][G,CE] | %294
 [F,,F,][A,CF] [F,,F,][A,CF] | [F,,F,][A,CF] [F,,F,][^B,DF^^G] | [F,,F,][A,CF] [F,,F,][A,CF] | %297
 [C,,C,][G,CE] [C,,C,][G,CE] | [F,,F,][A,CF] [^E,,^E,][G,^A,^^C] | %299
 [D,,D,][D,F,D] [B,,B,][^^G,B,D] | [A,,A,][F,A,D] [A,,A,][^G,A,^^C] | %301
 [B,,B,][K:treble][DFB][K:bass] [^B,,^B,][DFG] | [C,,C,][G,=B,CE] [C,C][G,B,CE] | %303
 [F,,F,][A,CF] [F,,F,][A,CF] | [D,,D,][G,^B,F][G,B,F][G,B,F] | [E,,E,][G,CE] [D,,D,][C,,C,] | %306
 [F,,F,][A,CF] [^E,,^E,][G,^A,^^C] | [D,,D,][D,F,D] [B,,B,][^^G,B,D] | %308
 [A,,A,][F,A,D] [A,,A,][^G,A,^^C] | [B,,B,][K:treble][DFB][K:bass] [^B,,^B,][DFG] | %310
 [C,,C,][G,=B,CE] [C,C][G,B,CE] | [F,,F,][A,CF] [F,,F,][A,CF] | [D,,D,][G,^B,F][G,B,F][G,B,F] | %313
 [C,,C,][G,=B,CE][G,=B,CE][G,=B,CE] | z4 | z4 | z4 | z4 | z4 | z4 | z4 |] %321
V:8
 x4 | x4 | x4 | x4 | x4 | x4 | x4 | x4 | x4 | x4 | x4 | x4 | x4 | x4 | x4 | x4 | x4 | x4 | x4 | %19
 x4 | x4 | x4 | x4 | x4 | x4 | x4 | x4 | x4 | x4 | x4 | x4 | x4 | x4 | x4 | x4 | x4 | x4 | x4 | %38
 x4 | x4 | x4 | x4 | x4 | x4 | x4 | x4 | x4 | x4 | x4 | x4 | x4 | [F,,,F,,]2 x2 | %52
 x2 [D,,,D,,]>[E,,,E,,] | [F,,,F,,]2 [F,,,F,,]>[E,,,E,,] | [D,,,D,,]2 [^B,,,,^B,,,]>[C,,,C,,] | %55
 [D,,,D,,]2 x2 | x4 | x4 | x4 | x4 | x4 | x4 | x4 | x4 | x2 [F,,,F,,]>[G,,,G,,] | %65
 [A,,,A,,]2 [A,,,A,,]>[G,,,G,,] | [F,,,F,,]2 [D,,,D,,]>[E,,,E,,] | [F,,,F,,]2 x2 | %68
[K:bass] x2 [D,,,D,,]>[E,,,E,,] | [F,,,F,,]2 [F,,,F,,]>[E,,,E,,] | %70
 [D,,,D,,]2 [^B,,,,^B,,,]>[C,,,C,,] | [D,,,D,,]2 x2 | x4 | x4 | x4 | x4 | x4 | x4 | x4 | x4 | x4 | %81
 x4 |[K:treble] x4 |[K:bass] x4 | x4 | x4 |[K:treble] x4 |[K:bass] x4 | x4 | x4 | %90
[K:treble] x2[K:bass] x2 | x4 | x4 | x4 |[K:treble] x4 |[K:bass] x4 | x4 | x4 |[K:treble] x4 | %99
[K:bass] x4 | x4 | x4 |[K:treble] x2[K:bass] x2 | x4 | x4 | x4 |[K:treble] x4 |[K:bass] x4 | x4 | %109
 x4 | x4 | x4 | x4 | x4 | x4 | x4 | x4 | x4 | x4 | x4 | x4 | x4 | x4 | x4 | x4 | x4 | x4 | x4 | %128
 x4 | x4 | x4 | x4 | x4 | x4 | x4 | x4 | x4 | x4 | x4 | x4 | x4 | x4 | x4 | x4 | x4 | x4 | x4 | %147
 x4 | x4 | x4 | x4 | x4 | x4 | x4 | x4 | x4 | x4 | x4 | x4 | x4 | x4 | x4 | x4 | x4 | x4 | x4 | %166
 x4 | x4 | x4 | x4 | x4 | x4 | x4 | x4 | x4 | x4 | x4 | x4 | x4 | x4 | x4 | x4 | x4 | x4 | x4 | %185
 x4 | x4 | x4 | x4 | x4 | x4 | x4 | x4 | x4 | x4 | x[K:treble] x3 |[K:bass] x[K:treble] x3 | x4 | %198
 x4 | x[K:treble] x3 | x4 |[K:bass] x[K:treble] x3 |[K:bass] x[K:treble] x3 | %203
[K:bass] x/[K:treble] x7/2 | x4 | x4 | x4 | x4 | x4 | x4 | x4 | x/[K:treble] x7/2 | x4 | x4 | x4 | %215
 x4 | x4 | x4 | x4 | x4 | x4 | x4 | x4 | x4 | x4 | x4 | x4 | x4 | x4 | x4 | x4 | x4 | x4 | x4 | %234
 x4 |] x4 | x4 | x4 |][K:D] x4 | x4 | x4 | x4 | x4 | x4 | x4 | x4 | x4 | x4 | x4 | x4 | x4 | x4 | %252
 x4 | x4 | x4 | x4 | x4 | x4 | x4 | x4 | x4 | x4 | x4 | x4 | x4 | x4 | x4 | x4 |[K:bass] x4 | x4 | %270
 x[K:treble] x3 | x4 |[K:bass] x4 |[K:treble] x7/2[K:bass] x/ | x[K:treble] x3 | x4 |[K:bass] x4 | %277
[K:treble] x2[K:bass] x2 | x4 | x4 | x4 |[K:treble] x4 |[K:bass] [^D,,,^D,,]4[K:treble] | x4 | %284
[K:bass] x4 |[K:treble] x7/2[K:bass] x/ | x4 | x4 |][K:F#] x4 | x4 | x4 | x4 | x4 | x4 | x4 | x4 | %296
 x4 | x4 | x4 | x4 | x4 | x[K:treble] x[K:bass] x2 | x4 | x4 | x4 | x4 | x4 | x4 | x4 | %309
 x[K:treble] x[K:bass] x2 | x4 | x4 | x4 | x4 | x4 | x4 | x4 | x4 | x4 | x4 | x4 |] %321
V:9
 x4 | x4 | x4 | x4 | x4 | x4 | x4 | x4 | x4 | x4 | x4 | x4 | x4 | x4 | x4 | x4 | x4 | x4 | x4 | %19
 x4 | x4 | x4 | x4 | x4 | x4 | x4 | x4 | x4 | x4 | x4 | x4 | x4 | x4 | x4 | x4 | x4 | x4 | x4 | %38
 x4 | x4 | x4 | x4 | x4 | x4 | x4 | x4 | x4 | x4 | x4 | x4 | x4 | x4 | x4 | x4 | x4 | x4 | x4 | %57
 x4 | x4 | x4 | x4 | x4 | x4 | x4 | x4 | x4 | x4 | x4 | x4 | x4 | x4 | x4 | x4 | x4 | x4 | x4 | %76
 x4 | x4 | x4 | x4 | x4 | x7/2!8va(! x/ | x4/3!8va)! x8/3 | x4 | x4 | x7/2!8va(! x/ | %86
 x4/3!8va)! x8/3 | x4 | x4 | x7/2!8va(! x/ | x4/3!8va)! x8/3 | x4 | x4 | %93
!8va(! x3/2!8va)! x2!8va(! x/ | x4/3!8va)! x8/3 | x2!8va(! x2 | x4 | x3/2!8va)! x2!8va(! x/ | %98
 x4/3!8va)! x8/3 | x4 | x4 | x7/2!8va(! x/ | x4/3!8va)! x8/3 | x4 | x4 | %105
!8va(! x3/2!8va)! x2!8va(! x/ | x4/3!8va)! x8/3 | x4 | x4 | x4 | x4 | x4 | x4 | x4 | x4 | x4 | x4 | %117
 x4 | x4 | x4 | x4 | x4 | x4 | x4 | x4 | x4 | x4 | x4 | x4 | x4 | x4 | x4 | x4 | x4 | x4 | x4 | %136
 x4 | x4 | x4 | x4 | x4 | x4 | x4 | x4 | x4 | x4 | x4 | x4 | x4 | x4 | x4 | x4 | x4 | x4 | x4 | %155
 x4 | x4 | x4 | x4 | x4 | x4 | x4 | [G,^B,D]2 x2 | x4 | x4 | x4 | x2 [FG]2 | x4 | x4 | x4 | x4 | %171
 x4 | x4 | x4 | x4 | x4 | x4 | x4 | x4 | x4 | x4 | x4 | x4 | x4 | x4 | x4 | x4 | x4 | x4 | x4 | %190
 x4 | x4 | x4 | x4 | x4 | (6:4:6c/a/f/e/[I:staff +1]A/F/ x2 | %196
[I:staff -1] (7:4:7c/a/f/c/[I:staff +1]^B/=A/F/ x2 | %197
[I:staff -1] (6:4:6c/a/f/e/[I:staff +1]A/F/ x2 |[I:staff -1](6:4:6x/g/e/c/[I:staff +1]B/E/ x2 | %199
[I:staff -1] (6:4:6c/a/f/e/[I:staff +1]A/F/ x2 |[I:staff -1] (6:4:6c/a/f/c/[I:staff +1]A/F/ x2 | %201
[I:staff -1] (6:4:6c/a/f/e/[I:staff +1]A/F/ x2 | %202
[I:staff -1](6:4:6x/g/e/c/[I:staff +1]B/E/!8va(! x2 | %203
[I:staff -1] (6:4:6a/4f'/4c'/4a/4[I:staff +1]f'/4c'/4 f[I:staff -1](6:4:6x/4e'/4^^c'/4a/4[I:staff +1]e'/4^^c'/4 e | %204
[I:staff -1] (6:4:6f/4d'/4a/4f/4[I:staff +1]d'/4a/4 d[I:staff -1](6:4:6x/4=b/4=a/4d/4[I:staff +1]b/4f/4 B | %205
[I:staff -1] (6:4:6f/4d'/4a/4f/4[I:staff +1]d'/4a/4 d[I:staff -1](6:4:6x/4^^c'/4a/4f/4[I:staff +1]a/4g/4 A | %206
[I:staff -1] (6:4:6d/4g/4f/4e/4[I:staff +1]b/4f/4 B[I:staff -1] (6:4:6d/4g/4f/4e/4[I:staff +1]b/4f/4 B!8va)! | %207
[I:staff -1] (6:4:6c/4g/4e/4c/4[I:staff +1]=B/4E/4 C!8va(![I:staff -1] (6:4:6c'/4g'/4e'/4c'/4!8va)!!8va(![I:staff +1]=b/4e/4 c!8va)! | %208
[I:staff -1] (6:4:6a/4f/4c/4[I:staff +1]A/4F/4C/4 A,[I:staff -1] (6:4:6f'/4c'/4a/4[I:staff +1]f/4c/4A/4 F | %209
[I:staff -1](6:4:6x/f'/^b/g/[I:staff +1]f/^B/ D2 | %210
[I:staff -1] (6:4:6g/e'/c'/g/[I:staff +1]e/=B/ C2 | %211
!8va(![I:staff -1] (6:4:6a/4f'/4c'/4a/4[I:staff +1]f'/4c'/4 f[I:staff -1](6:4:6x/4e'/4^^c'/4a/4[I:staff +1]e'/4^^c'/4 e | %212
[I:staff -1] (6:4:6f/4d'/4a/4f/4[I:staff +1]d'/4a/4 d[I:staff -1](6:4:6x/4=b/4=a/4d/4[I:staff +1]b/4f/4 B | %213
[I:staff -1] (6:4:6f/4d'/4a/4f/4[I:staff +1]d'/4a/4 d[I:staff -1](6:4:6x/4^^c'/4a/4f/4[I:staff +1]a/4g/4 A | %214
[I:staff -1] (6:4:6d/4g/4f/4e/4[I:staff +1]b/4f/4 B[I:staff -1] (6:4:6d/4g/4f/4e/4[I:staff +1]b/4f/4 B!8va)! | %215
[I:staff -1] (6:4:6c/4g/4e/4c/4[I:staff +1]=B/4E/4 C!8va(![I:staff -1] (6:4:6c'/4g'/4e'/4c'/4!8va)!!8va(![I:staff +1]=b/4e/4 c!8va)! | %216
 x4 | x4 | x4 | x4 | x4 | x4 | x4 | x4 | x4 | x4 | x4 | x4 | x4 | x4 | x4 | x4 | x4 | x4 | x4 |] %235
 x4 | x4 | x4 |][K:D] x4 | x4 | x4 | x4 | x4 | x4 | x4 | x4 | x4 | x4 | x4 | x4 | x4 | x4 | x4 | %253
 x4 | x4 | x4 | x4 | x4 | x4 | x4 | x4 | x4 | x4 | x4 | x4 | x4 | x4 | x4 | x4 | x4 | x!8va(! x3 | %271
 x4 | x!8va)! x5/2!8va(! x/ | x4/3!8va)! x8/3 | x4 | x4 | x7/2!8va(! x/ | x2/3!8va)! x10/3 | x4 | %279
 x4 | x197/60!8va(! x43/60 | x2!8va)! x2 | x4 | x4 |!8va(! x2!8va)! x3/2!8va(! x/ | %285
 x4/3!8va)! x8/3 | x4 | x4 |][K:F#] x4 | x4 | x4 | x4 | x4 | x4 | x4 | x4 | x4 | x4 |!8va(! x4 | %299
 x4 | x4 | x4 | x4 | x4 | x4 | x4 | x4 | x4 | x4 | x4 | x4 | x4 | x4 | x4!8va)! | x4 | x4 | x4 | %317
 x4 | x4 | x4 | x4 |] %321

